app/assets/images/icons/active/spell-check.svg

<?xml version="1.0" encoding="UTF-8" standalone="no"?>
<svg width="32px" height="232px" viewBox="0 0 32 232" version="1.1" xmlns="http://www.w3.org/2000/svg" xmlns:xlink="http://www.w3.org/1999/xlink" xmlns:sketch="http://www.bohemiancoding.com/sketch/ns">
    <title>spell-check</title>
    <description>Created with Sketch (http://www.bohemiancoding.com/sketch)</description>
    <defs></defs>
    <g id="Actions" stroke="none" stroke-width="1" fill="none" fill-rule="evenodd" sketch:type="MSPage">
        <path d="M20.1350741,132.43 C21.0479538,132.43 21.9206628,132.239 22.4519207,131.914 L22.138589,130.326 C21.6475019,130.625 21.1021843,130.803 20.4634697,130.803 C19.4822998,130.803 18.8405724,130.178 18.8405724,129.053 C18.8405724,128.033 19.3999498,127.328 20.408235,127.328 C20.9676124,127.328 21.5792116,127.532 22.0833543,127.816 L22.4930957,126.243 C21.9206628,125.917 21.075069,125.712 20.1903088,125.712 C18.0642732,125.712 16.7014813,127.029 16.7014813,129.119 C16.7014813,131.262 18.0371579,132.43 20.1350741,132.43 Z M12.7095154,132.416 C14.4258097,132.416 15.8850113,131.087 15.8850113,128.998 C15.8850113,126.989 14.7532011,125.712 13.1865428,125.712 C12.382124,125.712 11.79764,126.162 11.4009541,126.569 L11.4009541,123 L9.30203364,123.258 L9.30203364,132.43 L11.2774291,132.159 C11.6871705,132.309 12.2857143,132.416 12.7095154,132.416 C12.7095154,132.416 12.2857143,132.416 12.7095154,132.416 Z M11.4009541,127.816 C11.6871705,127.558 12.0015064,127.383 12.464474,127.383 C13.3211147,127.383 13.7860909,128.02 13.7860909,129.106 C13.7860909,130.151 13.2688928,130.856 12.3680643,130.856 C11.9723826,130.856 11.6459955,130.76 11.4009541,130.598 L11.4009541,127.816 Z M2,130.68 C2,131.657 2.84559377,132.43 3.93422044,132.43 C4.80692945,132.43 5.31107206,131.996 5.75997991,131.467 L5.80115491,131.467 C6.08737133,132.159 6.76826513,132.524 8.14511675,132.348 L8.34898318,130.856 C7.91413507,130.815 7.83178509,130.775 7.83178509,130.34 L7.84684911,128.467 C7.87296008,126.704 7.14888275,125.712 4.95756967,125.712 C3.75746924,125.712 2.7060005,126.108 2.03916646,126.459 L2.4760231,127.993 C3.21215164,127.627 3.97539543,127.356 4.63017826,127.356 C5.40446899,127.356 5.74592016,127.653 5.74592016,128.319 L5.74592016,128.44 C2.89781572,128.524 2,129.487 2,130.68 C2,130.68 2,129.487 2,130.68 Z M5.74592016,130.625 C5.52899824,130.87 5.18754708,131.045 4.76575446,131.045 C4.30278684,131.045 3.97539543,130.775 3.97539543,130.369 C3.97539543,129.811 4.45141853,129.567 5.74592016,129.416 L5.74592016,130.625 Z M27.1830279,130 L12.7326136,144.387 L4.97966357,136.666 L2.1606829,139.474 L12.7326136,150 L30,132.805 L27.1830279,130 Z M27.1830279,130" id="spell-check--lp-blue" fill="#206FAC" sketch:type="MSShapeGroup"></path>
        <path d="M20.1350741,92.43 C21.0479538,92.43 21.9206628,92.239 22.4519207,91.914 L22.138589,90.326 C21.6475019,90.625 21.1021843,90.803 20.4634697,90.803 C19.4822998,90.803 18.8405724,90.178 18.8405724,89.053 C18.8405724,88.033 19.3999498,87.328 20.408235,87.328 C20.9676124,87.328 21.5792116,87.532 22.0833543,87.816 L22.4930957,86.243 C21.9206628,85.917 21.075069,85.712 20.1903088,85.712 C18.0642732,85.712 16.7014813,87.029 16.7014813,89.119 C16.7014813,91.262 18.0371579,92.43 20.1350741,92.43 Z M12.7095154,92.416 C14.4258097,92.416 15.8850113,91.087 15.8850113,88.998 C15.8850113,86.989 14.7532011,85.712 13.1865428,85.712 C12.382124,85.712 11.79764,86.162 11.4009541,86.569 L11.4009541,83 L9.30203364,83.258 L9.30203364,92.43 L11.2774291,92.159 C11.6871705,92.309 12.2857143,92.416 12.7095154,92.416 C12.7095154,92.416 12.2857143,92.416 12.7095154,92.416 Z M11.4009541,87.816 C11.6871705,87.558 12.0015064,87.383 12.464474,87.383 C13.3211147,87.383 13.7860909,88.02 13.7860909,89.106 C13.7860909,90.151 13.2688928,90.856 12.3680643,90.856 C11.9723826,90.856 11.6459955,90.76 11.4009541,90.598 L11.4009541,87.816 Z M2,90.68 C2,91.657 2.84559377,92.43 3.93422044,92.43 C4.80692945,92.43 5.31107206,91.996 5.75997991,91.467 L5.80115491,91.467 C6.08737133,92.159 6.76826513,92.524 8.14511675,92.348 L8.34898318,90.856 C7.91413507,90.815 7.83178509,90.775 7.83178509,90.34 L7.84684911,88.467 C7.87296008,86.704 7.14888275,85.712 4.95756967,85.712 C3.75746924,85.712 2.7060005,86.108 2.03916646,86.459 L2.4760231,87.993 C3.21215164,87.627 3.97539543,87.356 4.63017826,87.356 C5.40446899,87.356 5.74592016,87.653 5.74592016,88.319 L5.74592016,88.44 C2.89781572,88.524 2,89.487 2,90.68 C2,90.68 2,89.487 2,90.68 Z M5.74592016,90.625 C5.52899824,90.87 5.18754708,91.045 4.76575446,91.045 C4.30278684,91.045 3.97539543,90.775 3.97539543,90.369 C3.97539543,89.811 4.45141853,89.567 5.74592016,89.416 L5.74592016,90.625 Z M27.1830279,90 L12.7326136,104.387 L4.97966357,96.666 L2.1606829,99.474 L12.7326136,110 L30,92.805 L27.1830279,90 Z M27.1830279,90" id="spell-check--white" fill="#FFFFFF" sketch:type="MSShapeGroup"></path>
        <path d="M20.1350741,52.43 C21.0479538,52.43 21.9206628,52.239 22.4519207,51.914 L22.138589,50.326 C21.6475019,50.625 21.1021843,50.803 20.4634697,50.803 C19.4822998,50.803 18.8405724,50.178 18.8405724,49.053 C18.8405724,48.033 19.3999498,47.328 20.408235,47.328 C20.9676124,47.328 21.5792116,47.532 22.0833543,47.816 L22.4930957,46.243 C21.9206628,45.917 21.075069,45.712 20.1903088,45.712 C18.0642732,45.712 16.7014813,47.029 16.7014813,49.119 C16.7014813,51.262 18.0371579,52.43 20.1350741,52.43 Z M12.7095154,52.416 C14.4258097,52.416 15.8850113,51.087 15.8850113,48.998 C15.8850113,46.989 14.7532011,45.712 13.1865428,45.712 C12.382124,45.712 11.79764,46.162 11.4009541,46.569 L11.4009541,43 L9.30203364,43.258 L9.30203364,52.43 L11.2774291,52.159 C11.6871705,52.309 12.2857143,52.416 12.7095154,52.416 C12.7095154,52.416 12.2857143,52.416 12.7095154,52.416 Z M11.4009541,47.816 C11.6871705,47.558 12.0015064,47.383 12.464474,47.383 C13.3211147,47.383 13.7860909,48.02 13.7860909,49.106 C13.7860909,50.151 13.2688928,50.856 12.3680643,50.856 C11.9723826,50.856 11.6459955,50.76 11.4009541,50.598 L11.4009541,47.816 Z M2,50.68 C2,51.657 2.84559377,52.43 3.93422044,52.43 C4.80692945,52.43 5.31107206,51.996 5.75997991,51.467 L5.80115491,51.467 C6.08737133,52.159 6.76826513,52.524 8.14511675,52.348 L8.34898318,50.856 C7.91413507,50.815 7.83178509,50.775 7.83178509,50.34 L7.84684911,48.467 C7.87296008,46.704 7.14888275,45.712 4.95756967,45.712 C3.75746924,45.712 2.7060005,46.108 2.03916646,46.459 L2.4760231,47.993 C3.21215164,47.627 3.97539543,47.356 4.63017826,47.356 C5.40446899,47.356 5.74592016,47.653 5.74592016,48.319 L5.74592016,48.44 C2.89781572,48.524 2,49.487 2,50.68 C2,50.68 2,49.487 2,50.68 Z M5.74592016,50.625 C5.52899824,50.87 5.18754708,51.045 4.76575446,51.045 C4.30278684,51.045 3.97539543,50.775 3.97539543,50.369 C3.97539543,49.811 4.45141853,49.567 5.74592016,49.416 L5.74592016,50.625 Z M27.1830279,50 L12.7326136,64.387 L4.97966357,56.666 L2.1606829,59.474 L12.7326136,70 L30,52.805 L27.1830279,50 Z M27.1830279,50" id="spell-check--body-grey" fill="#67737B" sketch:type="MSShapeGroup"></path>
        <path d="M20.1350741,12.43 C21.0479538,12.43 21.9206628,12.239 22.4519207,11.914 L22.138589,10.326 C21.6475019,10.625 21.1021843,10.803 20.4634697,10.803 C19.4822998,10.803 18.8405724,10.178 18.8405724,9.053 C18.8405724,8.033 19.3999498,7.328 20.408235,7.328 C20.9676124,7.328 21.5792116,7.532 22.0833543,7.816 L22.4930957,6.243 C21.9206628,5.917 21.075069,5.712 20.1903088,5.712 C18.0642732,5.712 16.7014813,7.029 16.7014813,9.119 C16.7014813,11.262 18.0371579,12.43 20.1350741,12.43 Z M12.7095154,12.416 C14.4258097,12.416 15.8850113,11.087 15.8850113,8.998 C15.8850113,6.989 14.7532011,5.712 13.1865428,5.712 C12.382124,5.712 11.79764,6.162 11.4009541,6.569 L11.4009541,3 L9.30203364,3.258 L9.30203364,12.43 L11.2774291,12.159 C11.6871705,12.309 12.2857143,12.416 12.7095154,12.416 C12.7095154,12.416 12.2857143,12.416 12.7095154,12.416 Z M11.4009541,7.816 C11.6871705,7.558 12.0015064,7.383 12.464474,7.383 C13.3211147,7.383 13.7860909,8.02 13.7860909,9.106 C13.7860909,10.151 13.2688928,10.856 12.3680643,10.856 C11.9723826,10.856 11.6459955,10.76 11.4009541,10.598 L11.4009541,7.816 Z M2,10.68 C2,11.657 2.84559377,12.43 3.93422044,12.43 C4.80692945,12.43 5.31107206,11.996 5.75997991,11.467 L5.80115491,11.467 C6.08737133,12.159 6.76826513,12.524 8.14511675,12.348 L8.34898318,10.856 C7.91413507,10.815 7.83178509,10.775 7.83178509,10.34 L7.84684911,8.467 C7.87296008,6.704 7.14888275,5.712 4.95756967,5.712 C3.75746924,5.712 2.7060005,6.108 2.03916646,6.459 L2.4760231,7.993 C3.21215164,7.627 3.97539543,7.356 4.63017826,7.356 C5.40446899,7.356 5.74592016,7.653 5.74592016,8.319 L5.74592016,8.44 C2.89781572,8.524 2,9.487 2,10.68 C2,10.68 2,9.487 2,10.68 Z M5.74592016,10.625 C5.52899824,10.87 5.18754708,11.045 4.76575446,11.045 C4.30278684,11.045 3.97539543,10.775 3.97539543,10.369 C3.97539543,9.811 4.45141853,9.567 5.74592016,9.416 L5.74592016,10.625 Z M27.1830279,10 L12.7326136,24.387 L4.97966357,16.666 L2.1606829,19.474 L12.7326136,30 L30,12.805 L27.1830279,10 Z M27.1830279,10" id="spell-check--title-grey" fill="#3A434E" sketch:type="MSShapeGroup"></path>
    </g>
</svg>

<svg width="32" height="232" viewBox="0 0 32 232" xmlns="http://www.w3.org/2000/svg" xmlns:sketch="http://www.bohemiancoding.com/sketch/ns"><title>spell-check</title><g sketch:type="MSPage" fill="none"><path d="M20.135 132.43c.913 0 1.786-.191 2.317-.516l-.313-1.588c-.491.299-1.036.477-1.675.477-.981 0-1.623-.625-1.623-1.75 0-1.02.559-1.725 1.568-1.725.559 0 1.171.204 1.675.488l.41-1.573c-.572-.326-1.418-.531-2.303-.531-2.126 0-3.489 1.317-3.489 3.407 0 2.143 1.336 3.311 3.434 3.311zm-7.426-.014c1.716 0 3.175-1.329 3.175-3.418 0-2.009-1.132-3.286-2.698-3.286-.804 0-1.389.45-1.786.857v-3.569l-2.099.258v9.172l1.975-.271c.41.15 1.008.257 1.432.257zm-1.309-4.6c.286-.258.601-.433 1.064-.433.857 0 1.322.637 1.322 1.723 0 1.045-.517 1.75-1.418 1.75-.396 0-.722-.096-.967-.258v-2.782zm-9.401 2.864c0 .977.846 1.75 1.934 1.75.873 0 1.377-.434 1.826-.963h.041c.286.692.967 1.057 2.344.881l.204-1.492c-.435-.041-.517-.081-.517-.516l.015-1.873c.026-1.763-.698-2.755-2.889-2.755-1.2 0-2.252.396-2.918.747l.437 1.534c.736-.366 1.499-.637 2.154-.637.774 0 1.116.297 1.116.963v.121c-2.848.084-3.746 1.047-3.746 2.24zm3.746-.055c-.217.245-.558.42-.98.42-.463 0-.79-.27-.79-.676 0-.558.476-.802 1.771-.953v1.209zm21.437-.625l-14.45 14.387-7.753-7.721-2.819 2.808 10.572 10.526 17.267-17.195-2.817-2.805zm0 0" fill="#206FAC" sketch:type="MSShapeGroup"/><path d="M20.135 92.43c.913 0 1.786-.191 2.317-.516l-.313-1.588c-.491.299-1.036.477-1.675.477-.981 0-1.623-.625-1.623-1.75 0-1.02.559-1.725 1.568-1.725.559 0 1.171.204 1.675.488l.41-1.573c-.572-.326-1.418-.531-2.303-.531-2.126 0-3.489 1.317-3.489 3.407 0 2.143 1.336 3.311 3.434 3.311zm-7.426-.014c1.716 0 3.175-1.329 3.175-3.418 0-2.009-1.132-3.286-2.698-3.286-.804 0-1.389.45-1.786.857v-3.569l-2.099.258v9.172l1.975-.271c.41.15 1.008.257 1.432.257zm-1.309-4.6c.286-.258.601-.433 1.064-.433.857 0 1.322.637 1.322 1.723 0 1.045-.517 1.75-1.418 1.75-.396 0-.722-.096-.967-.258v-2.782zm-9.401 2.864c0 .977.846 1.75 1.934 1.75.873 0 1.377-.434 1.826-.963h.041c.286.692.967 1.057 2.344.881l.204-1.492c-.435-.041-.517-.081-.517-.516l.015-1.873c.026-1.763-.698-2.755-2.889-2.755-1.2 0-2.252.396-2.918.747l.437 1.534c.736-.366 1.499-.637 2.154-.637.774 0 1.116.297 1.116.963v.121c-2.848.084-3.746 1.047-3.746 2.24zm3.746-.055c-.217.245-.558.42-.98.42-.463 0-.79-.27-.79-.676 0-.558.476-.802 1.771-.953v1.209zm21.437-.625l-14.45 14.387-7.753-7.721-2.819 2.808 10.572 10.526 17.267-17.195-2.817-2.805zm0 0" fill="#fff" sketch:type="MSShapeGroup"/><path d="M20.135 52.43c.913 0 1.786-.191 2.317-.516l-.313-1.588c-.491.299-1.036.477-1.675.477-.981 0-1.623-.625-1.623-1.75 0-1.02.559-1.725 1.568-1.725.559 0 1.171.204 1.675.488l.41-1.573c-.572-.326-1.418-.531-2.303-.531-2.126 0-3.489 1.317-3.489 3.407 0 2.143 1.336 3.311 3.434 3.311zm-7.426-.014c1.716 0 3.175-1.329 3.175-3.418 0-2.009-1.132-3.286-2.698-3.286-.804 0-1.389.45-1.786.857v-3.569l-2.099.258v9.172l1.975-.271c.41.15 1.008.257 1.432.257zm-1.309-4.6c.286-.258.601-.433 1.064-.433.857 0 1.322.637 1.322 1.723 0 1.045-.517 1.75-1.418 1.75-.396 0-.722-.096-.967-.258v-2.782zm-9.401 2.864c0 .977.846 1.75 1.934 1.75.873 0 1.377-.434 1.826-.963h.041c.286.692.967 1.057 2.344.881l.204-1.492c-.435-.041-.517-.081-.517-.516l.015-1.873c.026-1.763-.698-2.755-2.889-2.755-1.2 0-2.252.396-2.918.747l.437 1.534c.736-.366 1.499-.637 2.154-.637.774 0 1.116.297 1.116.963v.121c-2.848.084-3.746 1.047-3.746 2.24zm3.746-.055c-.217.245-.558.42-.98.42-.463 0-.79-.27-.79-.676 0-.558.476-.802 1.771-.953v1.209zm21.437-.625l-14.45 14.387-7.753-7.721-2.819 2.808 10.572 10.526 17.267-17.195-2.817-2.805zm0 0" fill="#67737B" sketch:type="MSShapeGroup"/><path d="M20.135 12.43c.913 0 1.786-.191 2.317-.516l-.313-1.588c-.491.299-1.036.477-1.675.477-.981 0-1.623-.625-1.623-1.75 0-1.02.559-1.725 1.568-1.725.559 0 1.171.204 1.675.488l.41-1.573c-.572-.326-1.418-.531-2.303-.531-2.126 0-3.489 1.317-3.489 3.407 0 2.143 1.336 3.311 3.434 3.311zm-7.426-.014c1.716 0 3.175-1.329 3.175-3.418 0-2.009-1.132-3.286-2.698-3.286-.804 0-1.389.45-1.786.857v-3.569l-2.099.258v9.172l1.975-.271c.41.15 1.008.257 1.432.257zm-1.309-4.6c.286-.258.601-.433 1.064-.433.857 0 1.322.637 1.322 1.723 0 1.045-.517 1.75-1.418 1.75-.396 0-.722-.096-.967-.258v-2.782zm-9.401 2.864c0 .977.846 1.75 1.934 1.75.873 0 1.377-.434 1.826-.963h.041c.286.692.967 1.057 2.344.881l.204-1.492c-.435-.041-.517-.081-.517-.516l.015-1.873c.026-1.763-.698-2.755-2.889-2.755-1.2 0-2.252.396-2.918.747l.437 1.534c.736-.366 1.499-.637 2.154-.637.774 0 1.116.297 1.116.963v.121c-2.848.084-3.746 1.047-3.746 2.24zm3.746-.055c-.217.245-.558.42-.98.42-.463 0-.79-.27-.79-.676 0-.558.476-.802 1.771-.953v1.209zm21.437-.625l-14.45 14.387-7.753-7.721-2.819 2.808 10.572 10.526 17.267-17.195-2.817-2.805zm0 0" fill="#3A434E" sketch:type="MSShapeGroup"/></g></svg>
